X:112
T:Canadian Boat Song. Le4.112
M:3/8
L:1/8
Q:1/8=100
B:L.Leadley MS#4 c1850
Z:Village Music Project, 2016 Ruairidh Greig
K:G
ddB|d2B|d2B|A2A|BBA|B>cd|
e2d|(B/A/)GA|BBA|B>cd|e2 (d/B/)|d3||
ddB|d2e|edB|A2d|fdA|d2e|f2e|d2z|
ddB|d2B|d2B|A2A|GBA|B>cd|
e2d|B/A/GF|GBA|B>cd|e2 (d/B/)|d3|]

